!!!COM: Ives, Charles
!!!OTL: String Quartet No. 2
!!!OMV: II: Arguments
!!!example: 255
!!!work: Ive-35
!!!OMD-full: Allegro con spirito
!!!OMD: [Allegro con spirito]
**kern	**kern	**dynam	**kern	**kern
*grp:A	*grp:A	*grp:A	*grp:B	*grp:B
*part4	*part3	*part3	*part2	*part1
*staff4	*staff3	*	*staff2	*staff1
*ICstr	*ICstr	*	*ICstr	*ICstr
*Icello	*Iviola	*	*Ivioln	*Ivioln
*I"Violoncello	*I"Viola	*	*I"Violin II	*I"Violin I
*I'Vc.	*I'Vla.	*	*I'Vln. II	*I'Vln. I
*clefF4	*clefC3	*	*clefG2	*clefG2
*k[]	*k[]	*	*k[]	*k[]
*C:	*C:	*	*C:	*C:
*M4/4	*M4/4	*	*M3/8	*M3/8
=19	=19	=19	=19	=19
*^	*	*	*	*
8yy	8DL	(16B^^LL	.	8G#X^^ 8d	16a^^LL 16ee
.	.	16F#X	.	.	16aJ 16ee
(16E-^^LL	8CCJ 8GG	16Fn	.	8r	8an 8aa-X
16DJJ)	.	16B-XJJ)	.	.	.
8ryy	8DL\	(16An^^LL	.	8B-X 8d	8aJ 8gg
.	.	16E	.	.	.
=20-	=20-	=20-	=20-	=20	=20
(16E-X^^LL	8CCJ 8GG	16E-X	.	8G#X^^ 8d	16a^^LL 16ee
16DJJ)	.	16A-XJJ)	.	.	16aJ 16ee
16ryy	8DL	(16G^^LL	.	8r	8a 8bb-X
16ryy	.	16Dn	.	.	.
(16E-X^^LL	8CCJ 8GG	16C#X	.	8B-X 8d	8aJ 8aa
16DJJ)	.	16F#XJJ)	.	.	.
=21	=21	=21	=21	=21	=21
*	*	*	*	*	*^
8ryy	8DL	16FnLL	.	8G#X^^ 8d	(16bb-X^^LL	4.a
.	.	16C	.	.	16aa	.
(16E-X^^LL	8CCJ 8GG	16B	.	8r	16ccc	.
16DJJ)	.	16F#XJJ	.	.	16ccc#X	.
8ryy	8DL\	16GLL	.	8B-X 8d	16eee	.
.	.	16c	.	.	16dddJJ)	.
*	*	*	*	*	*v	*v
=22-	=22-	=22-	=22-	=22	=22
(16E-^^LL	8CCJ 8GG	16c#X	.	8G#X^^ 8d	8a^L 8ggg#X
16DJJ)	.	16DJJ	.	.	.
8ryy	8DL	16e-XLL	.	8r	8a^ 8ggg#
.	.	16B-X	.	.	.
(16E-^^LL	8CCJ 8GG	16A	.	8B-X 8d	8a^J 8ggg#
16DJJ)	.	16g#XJJ	.	.	.
=23-	=23-	=23-	=23-	=23	=23
8ryy	8DL	16d#XLL	.	8G#X^^ 8d	8r
.	.	16en	.	.	.
(16E-^^LL	8CCJ 8GG	16Bn	.	8r	16ggnLL
16DJJ)	.	16cnJJ	.	.	16ccc#XJ
=	=	=	=	=-	=-
*	*	*^	*	*	*
16ryy	8DL\	8ryy	16fLL<LL	.	8B-X 8d	8ggg#XJ
16ryy	.	.	16F#X	.	.	.
=24-	=24-	=24-	=24-	=24-	=24	=24
(16E-X^^LL	8CCJ 8GG	4ryy	16B	.	8G#X^^ 8d	8a^^ 8bbb-X
16DJJ)	.	.	16B-XJJ	.	.	.
16ryy	8DL	.	16FnLL	.	8r	8r
16ryy	.	.	16En	.	.	.
(16E-^^LL	8CCJ 8GG	8ryy	16A	.	8B-X 8d	8ddd
16DJJ)	.	.	16CJJ 16A-X	.	.	.
*v	*v	*	*	*	*	*
*	*v	*v	*	*	*
=-	=-	=	=	=
*-	*-	*-	*-	*-
!!!system-decoration: [(s1,s2,s3,s4)]
!!!CDT: 1874/10/20-1954/05/19
!!!CBL: Danbury, United States
!!!CDL: New York, United States
!!!CNT: American
!!!AGN: Instrumental; Chamber
!!!MCN:
!!!MDT: 1946/05/11
!!!MGN: Juilliard School Student Ensemble
!!!MLC: New York, New York, United States of America
!!!MPD: 1946
!!!MPN: Goldberg, Alla; Koff, Alla; Levin, Walter; Robbins, Rena
!!!ODT: 1915
!!!PDT: 1954
!!!excerpt-start-measure: 19
!!!excerpt-end-measure: 24
!!!excerpt-start-time: 0:19
!!!excerpt-end-time: 0:24
!!!excerpt-duration-sec: 5
!!!excerpt-time-signature: 3/8;3/4
!!!excerpt-tempo-beat: {eighth};{quarter}
!!!excerpt-tempo-rate: {216};{108}
!!!excerpt-meter-type: polymetric
!!!excerpt-beat-group: G3
!!!excerpt-beat-subgroup: G2
!!!experiment: 1
!!!EEV: 2020/09/18
!!!ONB: Converted from MusicXML on 2020/09/04
!!!RDF**kern: > = above
!!!RDF**kern: < = below
